exported-svg/corner-right-down.svg

<svg height="24" viewBox="0 0 24 24" width="24" xmlns="http://www.w3.org/2000/svg"><path d="m15 19.2928932v-10.7928932c0-1.93299662-1.5670034-3.5-3.5-3.5h-7c-.27614237 0-.5-.22385763-.5-.5s.22385763-.5.5-.5h7c2.4852814 0 4.5 2.01471863 4.5 4.5v10.7928932l4.1464466-4.1464466c.1952622-.1952621.5118446-.1952621.7071068 0 .1952621.1952622.1952621.5118446 0 .7071068l-5 5c-.1952622.1952621-.5118446.1952621-.7071068 0l-5-5c-.19526214-.1952622-.19526214-.5118446 0-.7071068.1952622-.1952621.5118446-.1952621.7071068 0z"/></svg>

<?xml version="1.0" encoding="UTF-8"?>
<svg width="24px" height="24px" viewBox="0 0 24 24" version="1.1" xmlns="http://www.w3.org/2000/svg" xmlns:xlink="http://www.w3.org/1999/xlink">
    <!-- Generator: Sketch 55.2 (78181) - https://sketchapp.com -->
    <title>corner-right-down</title>
    <desc>Created with Sketch.</desc>
    <g id="corner-right-down" stroke="none" stroke-width="1" fill="none" fill-rule="evenodd">
        <path d="M15,19.2928932 L15,8.5 C15,6.56700338 13.4329966,5 11.5,5 L4.5,5 C4.22385763,5 4,4.77614237 4,4.5 C4,4.22385763 4.22385763,4 4.5,4 L11.5,4 C13.9852814,4 16,6.01471863 16,8.5 L16,19.2928932 L20.1464466,15.1464466 C20.3417088,14.9511845 20.6582912,14.9511845 20.8535534,15.1464466 C21.0488155,15.3417088 21.0488155,15.6582912 20.8535534,15.8535534 L15.8535534,20.8535534 C15.6582912,21.0488155 15.3417088,21.0488155 15.1464466,20.8535534 L10.1464466,15.8535534 C9.95118446,15.6582912 9.95118446,15.3417088 10.1464466,15.1464466 C10.3417088,14.9511845 10.6582912,14.9511845 10.8535534,15.1464466 L15,19.2928932 Z" id="Combined-Shape" fill="#000000" fill-rule="nonzero"></path>
    </g>
</svg>
